packages/foundations/assets/icons/functional/images/social/thumbs_up_16.svg

<svg width="16" height="16" viewBox="0 0 16 16" fill="none" xmlns="http://www.w3.org/2000/svg">
<g clip-path="url(#clip0_187_545)">
<path fill-rule="evenodd" clip-rule="evenodd" d="M10.808 5.59918C10.9368 5.22318 11.0576 4.78798 11.1216 4.33918C11.2224 3.63358 11.0552 2.96398 10.648 2.45438C10.2576 1.96398 9.68158 1.65358 9.01598 1.59998C7.72398 1.61438 7.30398 2.93998 7.13278 3.48718C6.71998 4.61838 6.09998 5.21678 5.58798 5.53918C5.55598 5.12638 5.22078 4.79838 4.79998 4.79838H2.39998C1.95838 4.79838 1.59998 5.15598 1.59998 5.59838V12.8C1.59998 13.2424 1.95838 13.6 2.39998 13.6H4.79998C5.15358 13.6 5.44398 13.3672 5.54958 13.0488C6.96798 13.644 8.90558 14.4 9.59998 14.4C11.9328 14.4 14.4 11.5216 14.4 8.79998C14.4 7.92478 14.4 5.59998 12 5.59998L10.808 5.59918ZM3.19998 11.9992V6.39838H3.99998V11.844V11.9992H3.19998ZM5.59998 11.3288V7.30558C6.45278 6.99198 7.85918 6.16158 8.64798 3.99998C8.82318 3.44158 8.94318 3.26318 9.00238 3.20558C9.12878 3.23198 9.28238 3.30638 9.39678 3.45038C9.52958 3.61678 9.57678 3.83918 9.53758 4.11198C9.39998 5.07198 8.90078 6.00958 8.89518 6.01918C8.76158 6.26718 8.76878 6.56798 8.91278 6.80878C9.05678 7.04958 9.31758 7.19838 9.59918 7.19838H11.9992C12.464 7.19838 12.7992 7.19838 12.7992 8.79838C12.7992 10.7824 10.9376 12.7984 9.60478 12.7984C9.18398 12.7784 7.29358 12.0552 5.59998 11.3288Z" fill="#1A1C1F"/>
</g>
<defs>
<clipPath id="clip0_187_545">
<rect width="16" height="16" fill="white"/>
</clipPath>
</defs>
</svg>

<svg xmlns="http://www.w3.org/2000/svg" width="16" height="16" fill="none"><g clip-path="url(#a)"><path fill="#1A1C1F" fill-rule="evenodd" d="M10.808 5.6c.129-.377.25-.812.314-1.26.1-.706-.067-1.376-.474-1.886-.39-.49-.966-.8-1.632-.854-1.292.014-1.712 1.34-1.883 1.887C6.72 4.618 6.1 5.217 5.588 5.54A.794.794 0 0 0 4.8 4.8H2.4a.8.8 0 0 0-.8.8V12.8a.8.8 0 0 0 .8.8h2.4a.79.79 0 0 0 .75-.551c1.418.595 3.356 1.351 4.05 1.351 2.333 0 4.8-2.878 4.8-5.6 0-.875 0-3.2-2.4-3.2zM3.2 12V6.397H4V12zm2.4-.671V7.306C6.453 6.992 7.86 6.162 8.648 4c.175-.558.295-.737.354-.794.127.026.28.1.395.244q.2.252.14.662c-.137.96-.636 1.898-.642 1.907A.8.8 0 0 0 9.6 7.2H12c.465 0 .8 0 .8 1.6 0 1.983-1.861 4-3.194 4-.421-.02-2.311-.744-4.005-1.47" clip-rule="evenodd"/></g><defs><clipPath id="a"><path fill="#fff" d="M0 0h16v16H0z"/></clipPath></defs></svg>
